!!!!SEGMENT: pl-kk--kk-i-489--001_anonim--justorum-animae.krn
!!!cenid: 18xx:1352
!!!COM: Anonim
!!!COM-rismID: pe30004985
!!!CDT:
!!!CNT:
!!!OTL: Justorum animae
!!!PDT:
!!!AGN: Sacred
!!!SMS-siglum: PL-Kk
!!!SMS-shelfmark: Kk.I.489
!!!SMS-shelfwork: 001 W
!!!SMS-variant:
!!!SMS-altvar:
!!!NIFC-rismSourceID: 1001136569
!!!NIFC-islandoraID: pl-kk:14513
!!!URL-pdf-islandora: https://repozytorium.nifc.pl/islandora/object/pl-kk%3A14513/datastream/PDF/view
!!!URL-scan: https://polish.musicsources.pl/pl/lokalizacje/galeria/rekopisy/6096 @EN{Scan on Polish Music Sources Website} @PL{Skany w portalu Dziedzictwo Muzyki Polskiej w otwartym dostępie}
!!!ONB-nifc: UWAGA: utwory w zbiorze: 1. Justrum animae, 2.Inclina Domine aurem tuam, 3. Ave Maris stella
!!!AIN: 2 empty
!!!key:
**kern	**kern	**dynam	**text
*part2	*part1	*part1	*part2
*staff2	*staff1	*	*staff2
*Iempty	*Iempty	*	*
*I"	*I"	*	*
*clefF4	*clefG2	*	*
*k[b-e-a-]	*k[b-e-a-]	*	*
*E-:	*E-:	*	*
*M3/4	*M3/4	*	*
=1	=1	=1	=1
*^	*	*	*
*	*	*	*	*below
!	!	!LO:TX:t=Nr 1szy	!	!
!	!	!LO:TX:a:t=P:problem=tekst pod dolną pięciolinią, ale wtedy źle się wyświetla	!	!
4G/	4E-\	4e- 4B-/	.	Ju-
4B-/	4E-\	4g 4e-/	.	-sto-
!	!	!LO:TX:a:t=Powoli	!	!
4B-/	4E-\	4a- 4f/	.	-rum
=2	=2	=2	=2	=2
4B-/	4.E-\	4.b- 4.g/	.	a-
8c/L	.	.	.	.
8d/J	8E-\	8cc 8a-/	.	-ni-
4e-/	4E-\	4b- 4g/	.	-me
=3	=3	=3	=3	=3
4e-/	4E-\	4b- 4g/	.	in
4e-/	4E-\	8ee- 8cc/	.	ma-
.	.	8dd 8b-/	.	-nu
8e-/L	4E-\	8cc 8a-/	.	De-
8B-/J	.	8b- 8g/	.	-i
=4	=4	=4	=4	=4
*	*2\right	*	*	*
2.B-/	2D\	4b- 4g/	.	sunt
.	.	4a- 4f/	.	.
.	4E-\	4g 4e-/	.	.
!LO:LB:g=original	!LO:LB:g=original	!LO:LB:g=original	!	!
=5	=5	=5	=5	=5
4B-/	4BB-\	4f 4d/	.	et
4B-/	4D\	4b- 4f/	.	.
4c/	4E-\	4b- 4g/	.	non
=6	=6	=6	=6	=6
2c/	4F\	2an 2e-/	.	tan-
.	4F#X\	.	.	.
4B-/	4G\	4b- 4d/	.	-get
=7	=7	=7	=7	=7
*	*	*^	*	*
*	*	*	*2\right	*	*
8c/L	8E-\L	8cc/	2g\	.	il-
8Bn/J	8D\	8dd/	.	.	-los
4cn/	8C\	8ee-/	.	.	tor-
.	8E-\J	8cc/	.	.	-men-
8d/L	4F\	8b- 8f/	4ryy	.	-tum
8c/J	.	8an 8e-/	.	.	ma-
=8	=8	=8	=8	=8	=8
4.c/	4.F\	4.an 4.e-/	2.reyy	.	-li-
8An/	8F\	8cc 8e-/	.	.	-ci-
8B-/	8BB-\	8b- 8d/	.	.	-e
8r	8r	8r	.	.	.
*	*	*v	*v	*	*
!LO:LB:g=original	!LO:LB:g=original	!LO:LB:g=original	!	!
=9	=9	=9	=9	=9
*	*	*	*below	*
!	!	!	!LO:DY:rj	!
4B-/	4D\	4ff 4a-\	f	et
4rA	4r	4r	.	.
.	.	.	p	.
4B-/	4D\	4a- 4f/	.	non
=10	=10	=10	=10	=10
4B-/	4E-\	4a-X 4f/	.	tan-
4B-/	4E-\	4g 4e-/	.	-get
4r	4ryy	4r	.	.
=11	=11	=11	=11	=11
!	!	!	!LO:DY:rj	!
4G/	4BBn\	4dd 4f\	f	et
4rA	4r	4r	.	.
.	.	.	p	.
4G/	4BB\	4f 4d/	.	non
=12	=12	=12	=12	=12
4G/	4C\	4f 4d/	.	tan-
4G/	4C\	4e- 4c/	.	-get
4r	4ryy	4r	.	.
=13	=13	=13	=13	=13
4c/	4A-\	4cc 4e-/	.	il-
4c/	4A-\	4cc 4en/	.	-los
4c/	4A-\	4cc 4f/	.	tor-
=14	=14	=14	=14	=14
4c/	4An\	4ee- 4f#X/	.	-men-
4d/	4A\	4dd 4f#/	.	-tum
4e-/	4A\	4cc 4f#/	.	ma-
!LO:LB:g=original	!LO:LB:g=original	!LO:LB:g=original	!	!
=15	=15	=15	=15	=15
2B-/	2B-\	4b- 4g/	.	-li-
.	.	4g 4e-/	.	.
4A-/	4BB-\	4f 4d/	.	-ci-
=16	=16	=16	=16	=16
*	*	*^	*	*
4G/	4E-\	4e-/	4e-\	.	-e
8G/L	8E-\L	4r	4ryy	.	vi-
8A-/	8F\	.	.	.	-si
8B-/	8G\	4r	4ryy	.	sunt
8c/J	8A-\J	.	.	.	.
*	*	*v	*v	*	*
=17	=17	=17	=17	=17
!	!	!	!LO:DY:rj	!
4d-X/	4B-\	4ee- 4g/	f	vi-
4e-/	4G\	8dd-XL 8b-/	.	-si
.	.	8ccJ 8an/	.	.
4e-/	4E-\	8dd-L 8b-/	.	sunt
.	.	8ee-J 8g/	.	.
=18	=18	=18	=18	=18
4c/	4A-\	8.cc 8.a-X/	.	o-
.	.	16a- 16e-/	.	-cu-
8A-/L	8C\L	4a- 4e-/	.	-lis
8B-/	8E-\	.	.	.
8B-/	8E-\	4r	.	.
8c/J	8A-\J	.	.	.
=19	=19	=19	=19	=19
*	*	*^	*	*
!	!	!	!	!LO:DY:rj	!
2c/	2En\	4cc 4g/	4rgyy	f	in
.	.	8b-/	8g\L	.	si-
.	.	16an/	8f#X\J	.	-pi-
.	.	16a/	.	.	-en-
4c/	4E\	8b-/	8g\L	.	-ti-
.	.	8cc/	8a-X\J	.	-um
*	*	*v	*v	*	*
!LO:LB:g=original	!LO:LB:g=original	!LO:LB:g=original	!	!
=20	=20	=20	=20	=20
4c/	4F\	4b- 4g/	.	mo-
4c/	4F\	4a- 4f/	.	-ri
4r	4ryy	4r	.	.
=21	=21	=21	=21	=21
!	!	!	!LO:DY:rj	!
2A-/	2D-X\	2ff 2f/	f	il-
4A-/	4D-\	4ff 4f/	.	-lis
=22	=22	=22	=22	=22
*	*	*^	*	*
4A-/	4D-X\	4ff/	4f\	.	au-
8An/L	4D-\	8ee-/L	4f\	.	-tem
8B-/J	.	8dd-X/J	.	.	.
8c/L	4D-\	8cc/	4f\	.	sunt
8d-X/J	.	8b-/	.	.	in
=23	=23	=23	=23	=23	=23
2c/	2.E-\	4a-/	(2e-\	.	pa-
.	.	16b-/LL	.	.	.
.	.	16a-/	.	.	.
.	.	16g/	.	.	.
.	.	16a-/JJ	.	.	.
4d-X/	.	8cc/L	4g\)	.	.
.	.	8b-/J	.	.	.
*	*	*v	*v	*	*
=24	=24	=24	=24	=24
4c/	4A-\	4a- 4e-/	.	-ce
4r	4ryy	4r	.	.
4r	4ryy	4r	.	.
!LO:LB:g=original	!LO:LB:g=original	!LO:LB:g=original	!	!
=25	=25	=25	=25	=25
*	*	*^	*	*
2.c/	2.A-\	2.f#X/	2.e-\	p	pa-
=26	=26	=26	=26	=26	=26
4c/	4G\	4g/	4e-\	.	-ce
4r	4ryy	4r	4ryy	.	.
4c/	4G\	4g/	4e-\	.	in
=27	=27	=27	=27	=27	=27
2.c/	2.G-X\	2.a-X/	2.e-\	.	pa-
=28	=28	=28	=28	=28	=28
4c/	4F\	4an/	4e-\	.	-ce
4r	4ryy	4r	4r	.	.
4c/	4F\	4a/	4e-\	.	in
=29	=29	=29	=29	=29	=29
4B-/	2.BB-\	4b-/	2d\	.	pa-
4A-/	.	4cc/	.	.	.
4G/	.	4b-/	4e-\	.	.
=30	=30	=30	=30	=30	=30
4En/	2.BB-\	4g/	2d-X\	.	.
4G/	.	4b-/	.	.	.
4F/	.	4a-/	4c\	.	.
=31	=31	=31	=31	=31	=31
2.A-/	2.BB-\	4f/	2.dn\	.	.
.	.	4g/	.	.	.
.	.	4f/	.	.	.
=32	=32	=32	=32	=32	=32
!	!LO:N:vis=2	!	!	!	!
4F/	2.BB-\	2b-/	4d\	.	-ce
4E-/	.	.	4c\	.	.
4D/	.	4r	4B-\	.	.
!LO:PB:g=original	!LO:PB:g=original	!LO:PB:g=original	!LO:PB:g=original	!	!
=33	=33	=33	=33	=33	=33
!	!	!	!	!LO:DY:rj	!
4G/	4E-\	4e-/	4B-\	p	Jus-
4B-/	4E-\	4g/	4e-\	.	-to-
4B-/	4E-\	4a-/	4f\	.	-rum
=34	=34	=34	=34	=34	=34
4B-/	4.E-\	4.b-/	4.g\	.	a-
8c/L	.	.	.	.	.
8d/J	8E-\	8cc/	8a-\	.	-ni-
4e-/	4E-\	4b-/	4g\	.	-me
=35	=35	=35	=35	=35	=35
!	!	!LO:N:vis=4.	!	!	!
4e-/	2E-\	4b-/	4g\	.	in
4e-/	.	8ee-/	8cc\L	.	ma-
.	.	8dd/	8b-\	.	-nu
4e-/	4E-\	8cc/	8a-\	.	De-
.	.	8b-/	8g\J	.	-i
=36	=36	=36	=36	=36	=36
2.B-/	2D\	4b-/	4g\	.	sunt
.	.	4a-/	4f\	.	.
.	4E-\	4g/	4e-\	.	.
=37	=37	=37	=37	=37	=37
4A-/	4AA-\	4e-/	4c\	.	et
4c/	4A-\	4cc/	4e-\	.	.
4c/	4G\	4b-/	4en\	.	non
!LO:LB:g=original	!LO:LB:g=original	!LO:LB:g=original	!LO:LB:g=original	!	!
=38	=38	=38	=38	=38	=38
2c/	4En\	4b-/	4g\	.	tan-
.	4F\	4a-/	4f\	.	.
4c-X/	4AA-\	4f/	4e-\	.	-get
=39	=39	=39	=39	=39	=39
2B-/	2.BB-\	2g/	2e-\	.	il-
4A-/	.	4f/	4d\	.	.
=40	=40	=40	=40	=40	=40
4G/	4E-\	4e-/	4e-\	.	-los
4r	4ryy	4r	4ryy	.	.
4r	4ryy	4e-/	4e-\	.	tor-
=41	=41	=41	=41	=41	=41
2.c/	2.E-\	2.a-/	2.e-\	.	-men-
=42	=42	=42	=42	=42	=42
4B-/	4E-\	4g/	4e-\	.	-tum
4r	4r	4r	4ryy	.	.
4G/	4E-\	4e- 4B-/	4ryy	.	ma-
=43	=43	=43	=43	=43	=43
2A-/	2BB-\	2f/	2d\	.	-li-
4A-/	4BB-\	4f/	4d\	.	-ci-
!LO:LB:g=original	!LO:LB:g=original	!LO:LB:g=original	!LO:LB:g=original	!	!
=44	=44	=44	=44	=44	=44
4G/	4E-\	4e-/	4e-\	.	-e
4r	4ryy	4r	4ryy	.	.
4r	4ryy	4e-/	4e-\	.	tor-
=45	=45	=45	=45	=45	=45
2.c/	2.E-\	2.a-/	2.e-\	.	-men-
=46	=46	=46	=46	=46	=46
4B-/	4E-\	4g/	4e-\	.	-tum
4r	4ryy	4r	4ryy	.	.
4r	4ryy	4e-/	4e-\	.	ma-
=47	=47	=47	=47	=47	=47
4A-/	4BB-\	2f/	2d\	.	-li-
4A-/	4BB-\	.	.	.	.
4A-/	4BB-\	4f/	4d\	.	-ci-
=48	=48	=48	=48	=48	=48
4G/	4E-\	4e-/	4B-\	.	-e
4r	4ryy	4r	4ryy	.	.
4G/	4E-\	4e-/	4B-\	.	in
=49	=49	=49	=49	=49	=49
2.A-/	2.A-\	2.e-/	2.c\	.	pa-
=50	=50	=50	=50	=50	=50
2.G/	2.E-\	2.e-/	2.B-\	.	-ce
!LO:LB:g=original	!LO:LB:g=original	!LO:LB:g=original	!LO:LB:g=original	!	!
=51	=51	=51	=51	=51	=51
2.G/	2BB-\	2.e-/	2.B-\	.	[pa-]
.	4GG\	.	.	.	.
=52	=52	=52	=52	=52	=52
2.G/	2.EE-\	2.e-/	2.B-\	.	.
=53	=53	=53	=53	=53	=53
4G/	4EE-\	4e-/	4B-\	.	ce
4r	4ryy	4r	4ryy	.	.
4r	4ryy	4r	4ryy	.	.
*v	*v	*	*	*	*
*	*v	*v	*	*
==	==	==	==
*-	*-	*-	*-
!!!system-decoration: [(s1,s2)]
!!!ENC: Marta Lawrence
!!!END: 2021-01-15
!!!ENC: Marcin Jachim
!!!END: 2021-01-10
